X:8295
T:Unknown Begin Of Danish Folk Tune
C:anon.
O:Denmark
F:http://abc.musicaviva.com/tunes/denmark/danish-tune01/danish-tune01-1.abc
%Posted April 6th 2002 at abcusers by Ulf (no last name given) with a
%request for information about the tune.
M:4/4
L:1/8
K:G
B2c2 |: "G" d^cde "D7" cBcd | "G" B2b2 b2Bd | "D7" c2 a2 a2 Ac |
"G" B2 g2 g2 Bc | d^cde "D7" cBcd | "G" B2b2 b2Bd | "D7" c2 a2 a^gab |
"G" g2 g2 g2 z2 ||
"A7" a^gab a=gfe | "D" d^cdf edcB | "A7" AB^cd efge | "D" d^cde f2 z2 |
"A7" a^gab a=gfe | "D" d^cdf edcB | "A7" AB^cd efge | "D" d2 d2 dc Bc :|
W:
W:
W:  From Musica Viva - http://www.musicaviva.com
W:  the Internet center for free sheet music downloads.

